lib/brands/icons/cyberark.svg

<svg xmlns="http://www.w3.org/2000/svg" fill="none" aria-hidden="true" viewBox="0 0 48 48"><g id="cyberark-Icon"><g id="Group"><path id="Vector" fill="#4E8DCB" d="M24.0003 6L8.3833 15.0225L16.4166 19.6386L24.0003 15.2623V6Z"/><path id="Vector_2" fill="#1F6DAE" d="M31.5837 28.3614L24 32.7377L24.03 42L39.617 33.0075V23.7452L31.5837 28.3614Z"/><path id="Vector_3" fill="#1F6DAE" d="M24 6V15.2623L31.5837 19.6386L39.587 14.9925L24 6Z"/><path id="Vector_4" fill="#4E8DCB" d="M8.41309 33.0075L24.0301 42L24.0001 32.7377L16.4164 28.3914L8.41309 33.0075Z"/><path id="Vector_5" fill="#1F6DAE" d="M8.41328 33.0075L16.4166 28.3914V19.6387L8.3833 15.0225L8.41328 33.0075Z"/><path id="Vector_6" fill="#888888" d="M24 15.2623L31.5837 19.6387V28.3914L24 24.015V15.2623Z"/><path id="Vector_7" fill="#595757" d="M24.0002 15.2623L16.4165 19.6387V28.3914L24.0002 24.015V15.2623Z"/></g></g></svg>

<svg xmlns="http://www.w3.org/2000/svg" fill="none" aria-hidden="true" viewBox="0 0 48 48"><path fill="#4E8DCB" d="M24 6 8.383 15.023l8.034 4.616L24 15.262V6Z"/><path fill="#1F6DAE" d="M31.584 28.361 24 32.738 24.03 42l15.587-8.992v-9.263l-8.033 4.616ZM24 6v9.262l7.584 4.377 8.003-4.646L24 6Z"/><path fill="#4E8DCB" d="M8.413 33.008 24.03 42 24 32.738l-7.584-4.347-8.003 4.617Z"/><path fill="#1F6DAE" d="m8.413 33.008 8.004-4.617V19.64l-8.034-4.616.03 17.985Z"/><path fill="#888" d="m24 15.262 7.584 4.377v8.752L24 24.015v-8.753Z"/><path fill="#595757" d="m24 15.262-7.584 4.377v8.752L24 24.015v-8.753Z"/></svg>
